X: 63
T: Missa de septem doloribus / Kyrie
N: Derived from Rue1014a-Missa_de_septem_doloribus-Kyrie.krn
C: Pierre de la Rue
%%abc-version 2.0
%%abcx-abcm2ps-target-version 5.9.1 (29 Sep 2008)
%%abc-creator hum2abc beta
%%abcx-conversion-date 2019/02/17 08:01:12
%%abc-edited-by Jesse Rodin
%%abc-edited-by Chris Gage 05-23-2013
%%abcx-initial-encoding-date 2013/08/03/
%%humdrum-veritas 277337595
%%humdrum-veritas-data 3774101060
%%linebreak <none>
%%barnumbers 0
L: 1/4
M: 4/2
Q: 1/2=120
V: 1 clef=treble
V: 2 clef=treble-8
V: 3 clef=treble-8
V: 4 clef=treble-8
V: 5 clef=bass
K: C
[V:1] z8 | 
[V:2] z8 | 
[V:3] z8 | 
[V:4] z8 | 
[V:5] D,8 | 
[V:1] z8 | 
[V:2] z8 | 
[V:3] z8 | 
[V:4] A8 | 
[V:5] F,8 | 
[V:1] z8 | 
[V:2] z8 | 
[V:3] z8 | 
[V:4] c8 | 
[V:5] E,4C,4 | 
[V:1] z8 | 
[V:2] z8 | 
[V:3] z8 | 
[V:4] B4G4 | 
[V:5] D,4B,,4 | 
[V:1] z8 | 
[V:2] z8 | 
[V:3] z8 | 
[V:4] A2F2E4 | 
[V:5] A,,2D,4^C,2 | 
[V:1] z8 | 
[V:2] d8 | 
[V:3] z8 | 
[V:4] D4z2A2 | 
[V:5] D,8- | 
[V:1] A8 | 
[V:2] f8 | 
[V:3] z8 | 
[V:4] A4F4 | 
[V:5] D,8 | 
[V:1] c8 | 
[V:2] e4c4 | 
[V:3] z8 | 
[V:4] G4A4 | 
[V:5] C,3B,,A,,4 | 
[V:1] B4G4 | 
[V:2] d4B4 | 
[V:3] z8 | 
[V:4] D2G4G2 | 
[V:5] G,,8 | 
[V:1] A4F4 | 
[V:2] A2d4cB | 
[V:3] z8 | 
[V:4] F2D3EFG | 
[V:5] z8 | 
[V:1] E3DE4 | 
[V:2] c2d4^c2 | 
[V:3] z8 | 
[V:4] A2B2A4- | 
[V:5] z8 | 
[V:1] D8 | 
[V:2] d8 | 
[V:3] D8 | 
[V:4] A4z2A2 | 
[V:5] z2D,2D,2F,2- | 
[V:1] z2A2A4 | 
[V:2] z2d2d4 | 
[V:3] F8 | 
[V:4] A4F4 | 
[V:5] F,E,D,C,D,4 | 
[V:1] c8 | 
[V:2] e2c3BA2 | 
[V:3] E4C4 | 
[V:4] G2E4F2 | 
[V:5] C,3B,,A,,4 | 
[V:1] B2G2A2F2 | 
[V:2] B2d4A2 | 
[V:3] D8 | 
[V:4] G4F2A2- | 
[V:5] G,,4z4 | 
[V:1] E2A3^GG2 | 
[V:2] c2d2e4 | 
[V:3] A4B4 | 
[V:4] AGF2E4 | 
[V:5] z8 | 
[V:1] A8 | 
[V:2] c2f3edc | 
[V:3] A4z2A2 | 
[V:4] F8 | 
[V:5] z2D,2D,4 | 
[V:1] z2F2G2E2 | 
[V:2] d4e4 | 
[V:3] A4c4 | 
[V:4] D4C4 | 
[V:5] F,4E,2C,2 | 
[V:1] D4C4 | 
[V:2] z4z2e2 | 
[V:3] B2G2A2F2 | 
[V:4] z4z2C2- | 
[V:5] D,2B,,2A,,4- | 
[V:1] z2C2D2C2 | 
[V:2] f2e2fedc | 
[V:3] E4z4 | 
[V:4] C2C2F2E2 | 
[V:5] A,,4z2A,,2 | 
[V:1] F2EDC4 | 
[V:2] d4e4- | 
[V:3] z2G2A2F2 | 
[V:4] D4z2A2- | 
[V:5] _B,,4A,,4 | 
[V:1] z2G2A2B2 | 
[V:2] e4z4 | 
[V:3] E4z2G2 | 
[V:4] A2G2c3B | 
[V:5] z2E,2F,2E,2 | 
[V:1] c3BG2A2- | 
[V:2] z8 | 
[V:3] A2B2c3A | 
[V:4] A2GFE4 | 
[V:5] A,,2E,4A,,2 | 
[V:1] A2^G2A4- | 
[V:2] e4c4- | 
[V:3] B4A4- | 
[V:4] z2E2F3G | 
[V:5] E,4z2A,2- | 
[V:1] A8- | 
[V:2] c4d2e2 | 
[V:3] A4z2C2 | 
[V:4] ABc2F2E2 | 
[V:5] A,G,F,E,D,2A,,2 | 
[V:1] A4A4- | 
[V:2] f3ec2d2- | 
[V:3] D3EF2D2 | 
[V:4] D2A2F3G | 
[V:5] D,E,F,G,A,4 | 
[V:1] A4F4 ||  
[V:2] d2^c2d4 ||  
[V:3] E4D4 ||  
[V:4] A4A4 ||  
[V:5] A,,4D,4 ||  
[V:1]  [K:C] [K:clef=treble][M:2/1]z4E4- | 
[V:2]  [K:C] [K:clef=treble-8][M:2/1]c4c4- | 
[V:3]  [K:C] [K:clef=treble-8][M:2/1]A8- | 
[V:4]  [K:C] [K:clef=treble-8][M:2/1]z8 | 
[V:5]  [K:C] [K:clef=bass][M:2/1]A,,8- | 
[V:1] E2C2E2F2 | 
[V:2] c2A2c2d2 | 
[V:3] A8 | 
[V:4] z8 | 
[V:5] A,,8 | 
[V:1] E2C3DEF | 
[V:2] c2e3dc2 | 
[V:3] A8 | 
[V:4] z8 | 
[V:5] A,,8 | 
[V:1] G8- | 
[V:2] B2E2e4 | 
[V:3] B4B4- | 
[V:4] G8- | 
[V:5] E,8- | 
[V:1] G8- | 
[V:2] e8- | 
[V:3] B2G2B2c2 | 
[V:4] G8 | 
[V:5] E,8 | 
[V:1] G8 | 
[V:2] e8 | 
[V:3] B2G3ABc | 
[V:4] G8 | 
[V:5] E,8 | 
[V:1] z4A4- | 
[V:2] A4A2d2- | 
[V:3] d4d4 | 
[V:4] F4F4- | 
[V:5] D,8- | 
[V:1] A2F2A2_B2 | 
[V:2] d2cBA2D2- | 
[V:3] d8- | 
[V:4] F2D2F2G2 | 
[V:5] D,8 | 
[V:1] A2F3GAB | 
[V:2] DEFGA2D2 | 
[V:3] d8 | 
[V:4] F2D3EFG | 
[V:5] z4D,4 | 
[V:1] c8 | 
[V:2] E8 | 
[V:3] c8- | 
[V:4] A6GF | 
[V:5] A,,4C,3D, | 
[V:1] c4c4- | 
[V:2] z4e4- | 
[V:3] c8 | 
[V:4] G2A2G2E2- | 
[V:5] E,2F,2E,2C,2- | 
[V:1] c4B4- | 
[V:2] e4d4 | 
[V:3] z8 | 
[V:4] EFGAB4 | 
[V:5] C,D,E,F,G,4 | 
[V:1] B2G6 | 
[V:2] e4z2e2- | 
[V:3] G8 | 
[V:4] z4G4- | 
[V:5] E,6C,2- | 
[V:1] E6A2- | 
[V:2] e4c4- | 
[V:3] G4A4- | 
[V:4] G2E6 | 
[V:5] C,4A,,4- | 
[V:1] A4G4- | 
[V:2] c2e6 | 
[V:3] A4E4 | 
[V:4] C4C2E2- | 
[V:5] A,,2C,6 | 
[V:1] G2F4ED | 
[V:2] c2d4cB | 
[V:3] G2A2F3E | 
[V:4] E2D2A4- | 
[V:5] E,2F,2D,4 | 
[V:1] E2F2E2A,2- | 
[V:2] c2A3Bcd | 
[V:3] C4E2F2 | 
[V:4] A4A4- | 
[V:5] A,,8- | 
[V:1] A,B,CDE2F2 | 
[V:2] e4c4 | 
[V:3] E2A4A2 | 
[V:4] A4E4 | 
[V:5] A,,8 | 
[V:1] G3ABcB2- | 
[V:2] B8 | 
[V:3] G6d2- | 
[V:4] z8 | 
[V:5] E,4E,2G,2- | 
[V:1] B2A3^GG2 | 
[V:2] z4z2e2- | 
[V:3] d4B4 | 
[V:4] z4G4 | 
[V:5] G,F,D,2E,4 | 
[V:1] A8 | 
[V:2] e2d3^c^c2 | 
[V:3] A8- | 
[V:4] F2EDE4 | 
[V:5] A,,8 | 
[V:1] z8 | 
[V:2] d8 | 
[V:3] A8 | 
[V:4] D4D2F2- | 
[V:5] z4D,4- | 
[V:1] z8 | 
[V:2] z4z2d2 | 
[V:3] z8 | 
[V:4] F2EDE2F2 | 
[V:5] D,2C,B,,A,,2D,2 | 
[V:1] z8 | 
[V:2] B3cd2e2- | 
[V:3] z8 | 
[V:4] G8- | 
[V:5] G,,3A,,B,,2C,2- | 
[V:1] z8 | 
[V:2] e2d2e2d2- | 
[V:3] z8 | 
[V:4] G8 | 
[V:5] C,2B,,2C,2G,,2- | 
[V:1] z8 | 
[V:2] d2cBABcd | 
[V:3] z8 | 
[V:4] z8 | 
[V:5] G,,A,,B,,C,D,2A,,2- | 
[V:1] z4A4- | 
[V:2] e2f4e2 | 
[V:3] A8 | 
[V:4] z8 | 
[V:5] A,,2D,4C,2 | 
[V:1] A4A4 | 
[V:2] f2edc4 | 
[V:3] A8 | 
[V:4] z8 | 
[V:5] D,2C,B,,A,,4 | 
[V:1] B2d4G2- | 
[V:2] d8- | 
[V:3] D8 | 
[V:4] G4G4- | 
[V:5] G,,8- | 
[V:1] G2FED2G2- | 
[V:2] d8 | 
[V:3] D4D4 | 
[V:4] G4G3A | 
[V:5] G,,8 | 
[V:1] GABcd2c2- | 
[V:2] z8 | 
[V:3] G4G2A2- | 
[V:4] Bcd2B2c2 | 
[V:5] z8 | 
[V:1] c2B2c2A2- | 
[V:2] z8 | 
[V:3] A2G2A2F2 | 
[V:4] d4c2c2- | 
[V:5] z8 | 
[V:1] AGG4^F2 | 
[V:2] z8 | 
[V:3] E4D4 | 
[V:4] cBAGA4 | 
[V:5] z8 | 
[V:1] G8- | 
[V:2] d8 | 
[V:3] z4G4- | 
[V:4] G3ABcd2- | 
[V:5] G,,8 | 
[V:1] G8 | 
[V:2] d4d4 | 
[V:3] G4G4 | 
[V:4] d2c3BB2 | 
[V:5] G,,8 | 
[V:1] z8 | 
[V:2] e2c4B2 | 
[V:3] E8- | 
[V:4] c2A4G2 | 
[V:5] C,3D,E,4 | 
[V:1] z8 | 
[V:2] c2A2c3d | 
[V:3] E8 | 
[V:4] A4A2c2- | 
[V:5] A,,4A,,2A,,2- | 
[V:1] z8 | 
[V:2] e8- | 
[V:3] E8- | 
[V:4] c2BAG2c2 | 
[V:5] A,,B,,C,D,E,C,E,F, | 
[V:1] z8 | 
[V:2] e8 | 
[V:3] E8 | 
[V:4] B2A2B4 | 
[V:5] G,2A,4^G,2 | 
[V:1] z8 | 
[V:2] z2A3Bcd | 
[V:3] F4F4 | 
[V:4] A2c4BA | 
[V:5] A,8 | 
[V:1] z8 | 
[V:2] e8 | 
[V:3] E8 | 
[V:4] G2A2E4 | 
[V:5] z2A,,3B,,C,D, | 
[V:1] z2E3FGA | 
[V:2] e4e4 | 
[V:3] G8 | 
[V:4] z8 | 
[V:5] E,4C,4 | 
[V:1] B2c2d4 | 
[V:2] d2c2B4 | 
[V:3] G8 | 
[V:4] z4D4 | 
[V:5] B,,2A,,2B,,4 | 
[V:1] c4A4- | 
[V:2] c8- | 
[V:3] A8 | 
[V:4] E4F3G | 
[V:5] A,,4F,,4- | 
[V:1] A4G4 | 
[V:2] c8 | 
[V:3] F4E4 | 
[V:4] A2F2G4 | 
[V:5] F,,4C,4 | 
[V:1] F4E4 | 
[V:2] z4c4 | 
[V:3] F4A4- | 
[V:4] z2D2E4 | 
[V:5] D,4A,,4 | 
[V:1] F6D2 | 
[V:2] d6B2 | 
[V:3] A4F4 | 
[V:4] D8- | 
[V:5] D,8 | 
[V:1] D6G2- | 
[V:2] B8- | 
[V:3] G4D4 | 
[V:4] D8 | 
[V:5] G,,8- | 
[V:1] G2FED4- | 
[V:2] B8 | 
[V:3] G6F2 | 
[V:4] D8 | 
[V:5] G,,8 | 
[V:1] D4D4 | 
[V:2] A4B4 | 
[V:3] D8 | 
[V:4] F6G2 | 
[V:5] D,3C,B,,4 | 
[V:1] E4A4- | 
[V:2] c4e4- | 
[V:3] C6D2 | 
[V:4] A2B2c4- | 
[V:5] A,,8- | 
[V:1] A4E4 | 
[V:2] e4c4 | 
[V:3] E8- | 
[V:4] c4A4 | 
[V:5] A,,8- | 
[V:1] E8 ||  
[V:2] c8 ||  
[V:3] E8 ||  
[V:4] A8 ||  
[V:5] A,,8 ||  
[V:1]  [K:C] [K:clef=treble][M:4/2]A4_B2A2- | 
[V:2]  [K:C] [K:clef=treble-8][M:4/2]A4d4- | 
[V:3]  [K:C] [K:clef=treble-8][M:4/2]z8 | 
[V:4]  [K:C] [K:clef=treble-8][M:4/2]z8 | 
[V:5]  [K:C] [K:clef=bass][M:4/2]z8 | 
[V:1] A2F2G2A2 | 
[V:2] d4B2c2 | 
[V:3] z8 | 
[V:4] z8 | 
[V:5] z8 | 
[V:1] _B2A3FG2- | 
[V:2] d3ef2e2- | 
[V:3] z8 | 
[V:4] z8 | 
[V:5] z8 | 
[V:1] GFEDE4 | 
[V:2] edd4^c2 | 
[V:3] z8 | 
[V:4] z4A4 | 
[V:5] z4A,,4 | 
[V:1] D4z4 | 
[V:2] d8 | 
[V:3] z8 | 
[V:4] _B2A4F2 | 
[V:5] D,8 | 
[V:1] z8 | 
[V:2] z8 | 
[V:3] z8 | 
[V:4] G2A2_B2A2- | 
[V:5] B,,2C,2D,3E, | 
[V:1] z8 | 
[V:2] z8 | 
[V:3] z8 | 
[V:4] A2d4^c2 | 
[V:5] F,2G,2E,4 | 
[V:1] A4_B2A2- | 
[V:2] z8 | 
[V:3] z8 | 
[V:4] d6cB | 
[V:5] D,8- | 
[V:1] A2F2G2A2 | 
[V:2] d4B2c2 | 
[V:3] z8 | 
[V:4] A4z4 | 
[V:5] D,4z4 | 
[V:1] B2c4BA | 
[V:2] d2e4dc | 
[V:3] z8 | 
[V:4] z8 | 
[V:5] z8 | 
[V:1] B2A4^G2 | 
[V:2] dcBAB4 | 
[V:3] z8 | 
[V:4] z4E4 | 
[V:5] z8 | 
[V:1] A8 | 
[V:2] A4z4 | 
[V:3] A8 | 
[V:4] F2E4C2 | 
[V:5] A,,8 | 
[V:1] z8 | 
[V:2] z8 | 
[V:3] _B4A4 | 
[V:4] D2E2F2E2- | 
[V:5] G,,4A,,3B,, | 
[V:1] z4A4 | 
[V:2] z8 | 
[V:3] G2F2E4 | 
[V:4] EDD4^C2 | 
[V:5] C,2D,2A,,4 | 
[V:1] _B2A4F2 | 
[V:2] d4A2d2 | 
[V:3] D8 | 
[V:4] D4z4 | 
[V:5] z8 | 
[V:1] G2A2_BAGF | 
[V:2] e2f2d4 | 
[V:3] z8 | 
[V:4] z8 | 
[V:5] z8 | 
[V:1] E8 | 
[V:2] c6dc | 
[V:3] A8 | 
[V:4] E8 | 
[V:5] A,,8 | 
[V:1] D3EF2E2- | 
[V:2] d4z4 | 
[V:3] _B2A4A2 | 
[V:4] F4D2E2 | 
[V:5] D,4D,2C,2- | 
[V:1] E2DCD4 | 
[V:2] z8 | 
[V:3] G2A4G2 | 
[V:4] CDEFD4 | 
[V:5] C,2A,,2B,,4 | 
[V:1] C8 | 
[V:2] e8 | 
[V:3] A2GFE4- | 
[V:4] E4A4- | 
[V:5] A,,8 | 
[V:1] z2A3Bc2 | 
[V:2] c3de2c2 | 
[V:3] E4E4 | 
[V:4] A4E3F | 
[V:5] A,,4C,4 | 
[V:1] B2G2A2F2- | 
[V:2] d2B2A4 | 
[V:3] D4z2A2- | 
[V:4] G4F2D2 | 
[V:5] G,,4D,4- | 
[V:1] FGA2G2E2 | 
[V:2] z2A2d2c2- | 
[V:3] ABc2B2G2 | 
[V:4] F4G4 | 
[V:5] D,2A,,2B,,2C,2 | 
[V:1] F2D3EF2 | 
[V:2] c2d3cA2 | 
[V:3] A2F3GA2 | 
[V:4] F8 | 
[V:5] F,,2_B,,3A,,F,,2 | 
[V:1] E2C2D4 | 
[V:2] B2c2F2G2 | 
[V:3] G2E3DD2 | 
[V:4] z8 | 
[V:5] G,,2A,,2_B,,4 | 
[V:1] z2A3Bc2 | 
[V:2] A8 | 
[V:3] E2F2E2C2 | 
[V:4] C3DE2F2 | 
[V:5] A,,8 | 
[V:1] B2G2A4 | 
[V:2] z2d2c2A2 | 
[V:3] D2G4^F2 | 
[V:4] G4C4 | 
[V:5] G,,2B,,2A,,4 | 
[V:1] D2E2D2G2- | 
[V:2] B4B4 | 
[V:3] G8 | 
[V:4] D2G3FED | 
[V:5] G,,8 | 
[V:1] GFEDC2F2- | 
[V:2] c2c3BA2- | 
[V:3] G4A3G | 
[V:4] C8 | 
[V:5] C,4A,,2F,,2 | 
[V:1] FED4^C2 | 
[V:2] A2G2A4 | 
[V:3] F3DE4 | 
[V:4] z4E4 | 
[V:5] _B,,4A,,4 | 
[V:1] D8- | 
[V:2] A8- | 
[V:3] D8- | 
[V:4] F8 | 
[V:5] z4D,,4 & x4D,4 | 
[V:1] D8 |]  
[V:2] A8 |]  
[V:3] D8 |]  
[V:4] F8 |]  
[V:5] D,,8 & D,8 |]  



